assets/svgSource/youtube.svg

<svg viewBox="0 0 40 28" xmlns="http://www.w3.org/2000/svg">
<path d="M38.8801 6.32006C38.8801 6.32006 38.56 3.60006 37.28 2.48006C35.84 0.880058 34.2401 0.880058 33.4401 0.880058C28.0001 0.560058 20 0.560059 20 0.560059C20 0.560059 12 0.560058 6.56005 0.880058C5.76005 1.04006 4.16005 1.04006 2.72005 2.48006C1.60005 3.60006 1.12005 6.32006 1.12005 6.32006C1.12005 6.32006 0.800049 9.36006 0.800049 12.5601V15.4401C0.800049 18.4801 1.12005 21.6801 1.12005 21.6801C1.12005 21.6801 1.44005 24.4001 2.72005 25.5201C4.16005 27.1201 6.08005 26.9601 6.88005 27.1201C9.92005 27.4401 20 27.4401 20 27.4401C20 27.4401 28.0001 27.4401 33.4401 26.9601C34.2401 26.8001 35.84 26.8001 37.28 25.3601C38.4 24.2401 38.8801 21.5201 38.8801 21.5201C38.8801 21.5201 39.2001 18.4801 39.2001 15.2801V12.4001C39.2001 9.36006 38.8801 6.32006 38.8801 6.32006ZM16 18.9601V8.24006L26.4 13.6801L16 18.9601Z" fill="currentColor"/>
</svg>

<svg viewBox="0 0 40 28" xmlns="http://www.w3.org/2000/svg"><path d="M38.88 6.32s-.32-2.72-1.6-3.84C35.84.88 34.24.88 33.44.88 28 .56 20 .56 20 .56s-8 0-13.44.32c-.8.16-2.4.16-3.84 1.6-1.12 1.12-1.6 3.84-1.6 3.84S.8 9.36.8 12.56v2.88c0 3.04.32 6.24.32 6.24s.32 2.72 1.6 3.84c1.44 1.6 3.36 1.44 4.16 1.6 3.04.32 13.12.32 13.12.32s8 0 13.44-.48c.8-.16 2.4-.16 3.84-1.6 1.12-1.12 1.6-3.84 1.6-3.84s.32-3.04.32-6.24V12.4c0-3.04-.32-6.08-.32-6.08ZM16 18.96V8.24l10.4 5.44L16 18.96Z" fill="currentColor"/></svg>
